icons/basketball-line.svg

<svg xmlns="http://www.w3.org/2000/svg" width="24" height="24" fill="none"><g clip-path="url(#a)"><g><path fill="#121212" d="M12 2C17.523 2 22 6.477 22 12C22 17.523 17.523 22 12 22C6.477 22 2 17.523 2 12C2 6.477 6.477 2 12 2ZM12.366 13.366L8.897 19.376C10.305 19.9651 11.8514 20.142 13.356 19.886C13.0903 18.0174 13.3622 16.1117 14.14 14.392L12.366 13.366ZM15.884 15.397C15.3651 16.6253 15.1633 17.9643 15.297 19.291C16.5108 18.7406 17.5683 17.8965 18.374 16.835L15.884 15.397ZM8.859 11.342C7.7586 12.8756 6.24469 14.0645 4.494 14.77C5.0229 16.2012 5.94958 17.4516 7.165 18.374L10.634 12.366L8.859 11.342ZM19.962 11.212L19.704 11.332C18.5953 11.8797 17.6297 12.6785 16.884 13.665L19.376 15.104C19.8936 13.8757 20.0951 12.5372 19.962 11.211V11.212ZM4 12C4 12.266 4.013 12.53 4.038 12.789C5.2535 12.242 6.31195 11.3981 7.116 10.335L4.624 8.897C4.21077 9.87926 3.9986 10.9344 4 12ZM16.835 5.626L13.366 11.634L15.141 12.659C16.2414 11.1246 17.7557 9.9349 19.507 9.229C19.0153 7.90124 18.1807 6.72743 17.088 5.827L16.835 5.626ZM12 4C11.537 4 11.084 4.04 10.643 4.115C10.9092 5.98363 10.6373 7.88943 9.859 9.609L11.634 10.634L15.103 4.624C14.1207 4.21077 13.0656 3.9986 12 4ZM8.703 4.71L8.512 4.798C7.3775 5.34946 6.38881 6.16035 5.626 7.165L8.116 8.603C8.63472 7.375 8.83657 6.03635 8.703 4.71Z"/></g></g><defs><clipPath id="a"><rect width="24" height="24" fill="white"/></clipPath></defs></svg>

<svg width="24" height="24" fill="none" xmlns="http://www.w3.org/2000/svg"><g clip-path="url(#a)"><path d="M12 2c5.523 0 10 4.477 10 10s-4.477 10-10 10S2 17.523 2 12 6.477 2 12 2Zm.366 11.366-3.469 6.01a8.053 8.053 0 0 0 4.459.51 9.937 9.937 0 0 1 .784-5.494l-1.774-1.026Zm3.518 2.031a7.956 7.956 0 0 0-.587 3.894 8.022 8.022 0 0 0 3.077-2.456l-2.49-1.438Zm-7.025-4.055a9.95 9.95 0 0 1-4.365 3.428 8.01 8.01 0 0 0 2.671 3.604l3.469-6.008-1.775-1.024Zm11.103-.13-.258.12a7.947 7.947 0 0 0-2.82 2.333l2.492 1.439a7.975 7.975 0 0 0 .586-3.893v.001ZM4 12c0 .266.013.53.038.789a7.95 7.95 0 0 0 3.078-2.454L4.624 8.897A7.975 7.975 0 0 0 4 12Zm12.835-6.374-3.469 6.008 1.775 1.025a9.95 9.95 0 0 1 4.366-3.43 8.015 8.015 0 0 0-2.419-3.402l-.253-.201ZM12 4c-.463 0-.916.04-1.357.115a9.928 9.928 0 0 1-.784 5.494l1.775 1.025 3.469-6.01A7.975 7.975 0 0 0 12 4Zm-3.297.71-.191.088a8.033 8.033 0 0 0-2.886 2.367l2.49 1.438a7.956 7.956 0 0 0 .587-3.893Z" /></g><defs><clipPath id="a"><path fill="#fff" d="M0 0h24v24H0z"/></clipPath></defs></svg>
